examples/demo-composable-pfp/assets/hair/mullet.svg

<?xml version="1.0" encoding="UTF-8"?>
<svg width="264px" height="280px" viewBox="0 0 264 280" version="1.1" xmlns="http://www.w3.org/2000/svg" xmlns:xlink="http://www.w3.org/1999/xlink">
    <!-- Generator: Sketch 58 (84663) - https://sketch.com -->
    <title>Avataaar/Default</title>
    <desc>Created with Sketch.</desc>
    <defs>
        <rect id="path-1" x="0" y="0" width="264" height="280"></rect>
        <path d="M81.0706626,152.100303 L81.3139331,151.591294 C86.6470672,164.343025 96.5616299,174.702121 108.999984,180.610943 L109.000498,189.610276 C106.639234,190.401998 104.095411,191.063242 101.273548,191.569729 C92.2609618,193.18734 66.9485528,188.041497 55.8287461,179.588187 C54.9804404,178.942941 55.4105393,177.670743 56.4993303,177.596328 C68.2421528,176.792949 74.2106831,165.300379 79.0058562,156.190972 C79.7177834,154.838538 80.404519,153.474084 81.0706626,152.100303 L81.3139331,151.591294 Z M175.127522,166.89656 C175.840743,169.13621 176.874235,171.230121 178.55519,172.685954 C180.17619,174.090053 183.068114,173.745469 185.098621,173.802748 C186.770693,173.850632 188.444623,173.856087 190.114529,173.783655 C190.95366,173.747287 191.327571,174.79771 190.648775,175.281705 C190.518773,175.374442 190.388771,175.462634 190.25846,175.543856 C189.20761,176.198779 188.11838,176.802787 187.008721,177.356184 C184.485135,178.614206 181.821334,179.600077 179.02722,180.090436 C177.110999,180.426483 175.211641,180.489655 173.373193,180.266583 C173.858789,180.986758 174.419512,181.642311 175.071506,182.207788 C176.801481,183.708407 179.887821,183.340135 182.054832,183.401352 C183.839313,183.452528 185.625776,183.458358 187.407944,183.380946 C188.303488,183.342078 188.702535,184.464709 187.978106,184.981974 C187.839364,185.081086 187.700623,185.175341 187.561551,185.262145 C186.440057,185.962089 185.2776,186.607617 184.093342,187.199055 C181.400104,188.543555 178.557223,189.597195 175.57527,190.121262 C170.075488,191.087126 164.705859,189.943766 160.380755,186.413279 C159.163245,185.419467 158.026681,184.286937 156.999075,183.051889 L157.000016,180.610943 C163.950154,177.30929 170.112313,172.618171 175.127522,166.89656 Z M101.441738,25.5998777 C121.403017,20.3995724 135.651446,29.4743102 136.862131,30.2568033 C138.299428,31.1854765 138.85043,30.796545 140.483286,30.4052984 C146.829392,28.8846292 153.741035,28.1960616 160.187893,29.4782789 C166.528383,30.7396605 172.606255,34.0244119 177.74696,37.856181 C187.273882,44.9574883 195.508524,56.4379129 195.90592,68.6796644 C196.081329,74.1868816 195.28885,79.9070851 194.184533,85.2955724 C193.189889,90.1482867 189.869671,93.9714569 188.837367,98.7289227 C184.809898,85.0481908 169.433037,80.4838679 160.242068,71.1548033 C162.238626,74.9478777 165.29094,78.1026546 167.294435,81.8328914 C158.047309,76.1675881 149.087576,67.953725 145.262273,57.5379012 C144.554691,62.9359795 142.545911,67.9275978 139.15401,72.2035294 C136.142657,76.0002417 131.572444,80.0744315 126.858864,81.5445 C129.286511,76.0372828 131.361358,70.327001 133.266412,64.6190342 C131.249704,67.2357231 124.568637,78.352682 122.891185,81.1086057 C121.234875,83.8298033 119.37772,86.426318 117.383805,88.9120401 C116.450603,90.0751967 115.455298,91.1993278 114.453055,92.302954 C113.869349,92.9458816 113.274082,93.578226 112.665931,94.1980029 C112.450882,94.4169423 110.823641,96.2071517 111.753871,95.0036468 C109.537639,97.8062025 106.276221,99.9826977 103.44325,102.112561 C100.59079,104.256976 97.4833088,106.08125 94.2522818,107.589351 C87.0932166,110.931649 79.7402436,112.148383 71.9327267,110.752066 L72.147048,110.788105 L72.3284821,110.800693 C73.5480643,110.828501 75.5398586,109.975832 76.6941053,109.626246 L76.8887739,109.570058 C78.6980301,109.07761 80.3625987,108.452872 82.0017312,107.546357 C85.2753717,105.735312 88.3514706,103.576015 91.1778346,101.127995 C88.4707222,102.280238 86.2726593,104.461694 83.513684,105.671152 C81.2270908,106.673576 78.9669245,107.196782 76.4817987,107.437218 C71.0203357,107.966046 64.4865987,106.716901 59.7607964,103.849523 C54.2686121,100.517478 51.2186099,94.7989286 49.7717335,88.7129442 C48.0913088,81.6460323 49.1355043,73.6726057 53.0992189,67.6388757 C53.2336661,69.781637 57.5349852,70.703365 61.0154166,70.1662691 C70.6728211,68.675365 76.4180436,32.1184491 101.441738,25.5998777 Z M71.9327267,110.752066 L72.147048,110.788105 L72.1216054,110.786364 C72.055537,110.778353 71.9924682,110.767014 71.9327267,110.752066 Z" id="path-3"></path>
        <path d="M64.7214121,63.4643353 C71.8381194,62.1698595 81.796173,63.6461901 84.1074639,67.092174 L83.998,66.939 L84.010445,66.9215199 C86.5309935,63.5977488 96.2765075,62.1914341 103.274279,63.4643353 C112.927938,65.2207224 117.019147,75.7669804 115.780485,77.6791014 C114.655476,79.4153191 111.53642,77.7739966 109.119711,77.6298353 C104.118941,77.3322546 94.948229,81.5102869 86.0463327,76.6891498 C85.2347477,76.2495714 84.5386341,75.6083797 83.9975585,74.8390687 C83.4573866,75.6083797 82.7612729,76.2495714 81.949688,76.6891498 C73.0477917,81.5102869 63.8767499,77.3322546 58.8763101,77.6298353 C56.459601,77.7739966 53.3405442,79.4153191 52.2155358,77.6791014 C50.9768736,75.7669804 55.0680827,65.2207224 64.7214121,63.4643353 Z" id="path-5"></path>
    </defs>
    <g id="Avataaar/Default" stroke="none" stroke-width="1" fill="none" fill-rule="evenodd">
        <g id="Top">
            <mask id="mask-2" fill="white">
                <use xlink:href="#path-1"></use>
            </mask>
            <g id="Mask"></g>
            <g id="Top/Short-Hair/Shaggy-Mullet" mask="url(#mask-2)">
                <g transform="translate(-1.000000, 0.000000)">
                    <g id="Top/_Resources/Blank" stroke="none" fill="none" transform="translate(62.000000, 85.000000)"></g>
                    <mask id="mask-4" fill="white">
                        <use xlink:href="#path-3"></use>
                    </mask>
                    <use id="Hair" stroke="none" fill="#1D2633" fill-rule="evenodd" xlink:href="#path-3"></use>
                    <g id="Color/Hair/Brown" stroke="none" fill="none" mask="url(#mask-4)" fill-rule="evenodd">
                        <g transform="translate(1.000000, 0.000000)" fill="#4A312C" id="Color">
                            <rect x="0" y="0" width="264" height="280"></rect>
                        </g>
                    </g>
                    <path d="M81.3138259,151.591038 C86.6469671,164.342965 96.5616685,174.702208 109.000213,180.611052 L109.000871,189.610151 C106.639502,190.401928 104.095559,191.063216 101.273548,191.569729 C92.2609618,193.18734 66.9485528,188.041497 55.8287461,179.588187 C54.9804404,178.942941 55.4105393,177.670743 56.4993303,177.596328 C68.2421528,176.792949 74.2106831,165.300379 79.0058562,156.190972 C79.7177834,154.838538 80.404519,153.474084 81.0706626,152.100303 Z M178.55519,172.685954 C180.17619,174.090053 183.068114,173.745469 185.098621,173.802748 C186.770693,173.850632 188.444623,173.856087 190.114529,173.783655 C190.95366,173.747287 191.327571,174.79771 190.648775,175.281705 C190.518773,175.374442 190.388771,175.462634 190.25846,175.543856 C189.20761,176.198779 188.11838,176.802787 187.008721,177.356184 C184.485135,178.614206 181.821334,179.600077 179.02722,180.090436 C177.111347,180.426422 175.212329,180.489632 173.374193,180.266704 C173.858789,180.986758 174.419512,181.642311 175.071506,182.207788 C176.801481,183.708407 179.887821,183.340135 182.054832,183.401352 C183.839313,183.452528 185.625776,183.458358 187.407944,183.380946 C188.303488,183.342078 188.702535,184.464709 187.978106,184.981974 C187.839364,185.081086 187.700623,185.175341 187.561551,185.262145 C186.440057,185.962089 185.2776,186.607617 184.093342,187.199055 C181.400104,188.543555 178.557223,189.597195 175.57527,190.121262 C170.075488,191.087126 164.705859,189.943766 160.380755,186.413279 C159.163898,185.42 158.0279,184.288152 157.000729,183.053876 L157.001784,180.610103 C163.951199,177.308494 170.112739,172.617686 175.127522,166.89656 C175.840743,169.13621 176.874235,171.230121 178.55519,172.685954 Z" id="Shadow" stroke="none" fill-opacity="0.16" fill="#000000" fill-rule="evenodd"></path>
                    <g id="Facial-Hair/Moustache-Magnum" stroke="none" fill="none" transform="translate(49.000000, 72.000000)">
                        <mask id="mask-6" fill="white">
                            <use xlink:href="#path-5"></use>
                        </mask>
                        <use id="Hey..." fill="#28354B" fill-rule="evenodd" xlink:href="#path-5"></use>
                        <g id="Color/Hair/Brown" mask="url(#mask-6)" fill="#4A312C" fill-rule="evenodd">
                            <rect id="Color" x="0" y="0" width="168" height="152"></rect>
                        </g>
                    </g>
                </g>
            </g>
        </g>
    </g>
</svg>

<svg xmlns="http://www.w3.org/2000/svg" xmlns:xlink="http://www.w3.org/1999/xlink" width="264" height="280"><defs><path id="bfd6db9d__a" d="M0 0h264v280H0z"/><path id="f04d9791__c" d="m81.07 152.1.244-.509A56.2 56.2 0 0 0 109 180.611v9a54 54 0 0 1-7.726 1.959c-9.013 1.617-34.325-3.529-45.445-11.982-.849-.645-.418-1.917.67-1.992 11.743-.803 17.712-12.296 22.507-21.405a139 139 0 0 0 2.065-4.09l.243-.51Zm94.058 14.797c.713 2.24 1.746 4.333 3.427 5.789 1.621 1.404 4.513 1.06 6.544 1.117 1.672.048 3.346.053 5.016-.02.839-.036 1.213 1.015.534 1.499q-.195.139-.39.262a39 39 0 0 1-3.25 1.812c-2.524 1.258-5.188 2.244-7.982 2.734-1.916.336-3.815.4-5.654.177a9.8 9.8 0 0 0 1.699 1.94c1.73 1.501 4.816 1.133 6.983 1.194 1.784.052 3.57.057 5.353-.02.895-.039 1.295 1.084.57 1.601a8 8 0 0 1-.416.28 42 42 0 0 1-3.469 1.937c-2.693 1.345-5.536 2.398-8.518 2.922-5.5.966-10.87-.177-15.194-3.708a25 25 0 0 1-3.382-3.361l.001-2.441a56.2 56.2 0 0 0 18.128-13.714M101.442 25.6c19.961-5.2 34.21 3.874 35.42 4.657 1.437.928 1.988.54 3.621.148 6.346-1.52 13.258-2.209 19.705-.927 6.34 1.262 12.418 4.546 17.559 8.378 9.527 7.101 17.762 18.582 18.159 30.824.175 5.507-.617 11.227-1.721 16.616-.995 4.852-4.315 8.675-5.348 13.433-4.027-13.68-19.404-18.245-28.595-27.574 1.997 3.793 5.049 6.948 7.052 10.678-9.247-5.665-18.206-13.88-22.032-24.295-.707 5.398-2.716 10.39-6.108 14.666-3.011 3.796-7.582 7.87-12.295 9.34 2.428-5.507 4.502-11.217 6.407-16.925-2.016 2.617-8.697 13.734-10.375 16.49-1.656 2.72-3.513 5.317-5.507 7.803-.933 1.163-1.929 2.287-2.93 3.391a67 67 0 0 1-1.788 1.895c-.215.219-1.842 2.01-.912.806-2.216 2.802-5.478 4.979-8.31 7.109-2.853 2.144-5.96 3.968-9.192 5.476-7.159 3.343-14.512 4.56-22.32 3.163l.215.036.181.013c1.22.028 3.212-.825 4.366-1.175l.195-.056c1.809-.492 3.474-1.117 5.113-2.024a54 54 0 0 0 9.176-6.418c-2.707 1.152-4.905 3.334-7.664 4.543-2.287 1.003-4.547 1.526-7.032 1.766-5.462.529-11.995-.72-16.721-3.587-5.492-3.333-8.542-9.051-9.99-15.137-1.68-7.067-.635-15.04 3.328-21.074.135 2.143 4.436 3.064 7.916 2.527 9.658-1.49 15.403-38.048 40.427-44.566m-29.51 85.152.215.036-.025-.002a2 2 0 0 1-.19-.034"/><path id="af50f49c__e" d="M64.721 63.464c7.117-1.294 17.075.182 19.386 3.628l-.109-.153.012-.017c2.521-3.324 12.267-4.73 19.264-3.458 9.654 1.757 13.745 12.303 12.506 14.215-1.125 1.736-4.244.095-6.66-.05-5.001-.297-14.172 3.881-23.074-.94a6.04 6.04 0 0 1-2.048-1.85 6 6 0 0 1-2.048 1.85c-8.902 4.821-18.073.643-23.074.94-2.416.145-5.535 1.786-6.66.05-1.24-1.912 2.852-12.458 12.505-14.215"/></defs><g fill="none" fill-rule="evenodd"><mask id="c7079f76__b" fill="#fff"><use xlink:href="#bfd6db9d__a"/></mask><g mask="url(#c7079f76__b)"><g transform="translate(-1)"><mask id="53b41ae0__d" fill="#fff"><use xlink:href="#f04d9791__c"/></mask><use xlink:href="#f04d9791__c" fill="#1D2633"/><g mask="url(#53b41ae0__d)"><path fill="#4A312C" d="M1 0h264v280H1z"/></g><path fill="#000" fill-opacity=".16" d="M81.314 151.591A56.2 56.2 0 0 0 109 180.611v9a54 54 0 0 1-7.726 1.959c-9.013 1.617-34.325-3.529-45.445-11.982-.849-.645-.418-1.917.67-1.992 11.743-.803 17.712-12.296 22.507-21.405a139 139 0 0 0 2.065-4.09Zm97.241 21.095c1.621 1.404 4.513 1.06 6.544 1.117 1.672.048 3.346.053 5.016-.02.839-.036 1.213 1.015.534 1.499q-.195.139-.39.262a39 39 0 0 1-3.25 1.812c-2.524 1.258-5.188 2.244-7.982 2.734-1.916.336-3.815.4-5.653.177a9.8 9.8 0 0 0 1.698 1.94c1.73 1.501 4.816 1.133 6.983 1.194 1.784.052 3.57.057 5.353-.02.895-.039 1.295 1.084.57 1.601a8 8 0 0 1-.416.28 42 42 0 0 1-3.469 1.937c-2.693 1.345-5.536 2.398-8.518 2.922-5.5.966-10.87-.177-15.194-3.708a25 25 0 0 1-3.38-3.36v-2.443a56.2 56.2 0 0 0 18.127-13.713c.713 2.24 1.746 4.333 3.427 5.789"/><g transform="translate(49 72)"><mask id="f974002d__f" fill="#fff"><use xlink:href="#af50f49c__e"/></mask><use xlink:href="#af50f49c__e" fill="#28354B"/><g fill="#4A312C" mask="url(#f974002d__f)"><path d="M0 0h168v152H0z"/></g></g></g></g></g></svg>
